app/dist/common/images/marcus-the.svg

<svg height="18" viewBox="0 0 18 18" width="18" xmlns="http://www.w3.org/2000/svg"><path d="m0 0h18v18h-18z" fill="#f0f3fa"/><path d="m4 4h10v10h-10zm1 1h8v8h-8zm.56 1.16v-.16h6.44v5.53l.56.47h-2.02v-5.5c-.03-.12-.1-.34-.54-.34v5.84h-2v-5.5c-.03-.12-.11-.34-.57-.34v5.84h-1.43v-5.44c0-.08-.11-.28-.44-.4z" fill="#a20145" fill-rule="evenodd"/></svg>

<!-- by TradingView --><svg width="18" height="18" viewBox="0 0 18 18" xmlns="http://www.w3.org/2000/svg"><path fill="#F0F3FA" d="M0 0h18v18H0z"/><path fill-rule="evenodd" d="M4 4h10v10H4V4Zm1 1h8v8H5V5Zm.56 1.16V6H12v5.53l.56.47h-2.02V6.5c-.03-.12-.1-.34-.54-.34V12H8V6.5c-.03-.12-.11-.34-.57-.34V12H6V6.56c0-.08-.11-.28-.44-.4Z" fill="#A20145"/></svg>
